/* XPM */
static const char *veyon_configurator[] = {
/* columns rows colors chars-per-pixel */
"32 32 168 2 ",
"   c #136F5F",
".  c #12705E",
"X  c #12705F",
"o  c #13705F",
"O  c #13715F",
"+  c #14705E",
"@  c #14705F",
"#  c #14715F",
"$  c #15715F",
"%  c #16715F",
"&  c #17715F",
"*  c #15725F",
"=  c #1B735E",
"-  c #1D705D",
";  c #1F745D",
":  c #1E745E",
">  c #25775C",
",  c #28705B",
"<  c #307A5B",
"1  c #317A5B",
"2  c #327B5B",
"3  c #337B5B",
"4  c #3A7E5A",
"5  c #3D7F59",
"6  c #3F7C5A",
"7  c #157160",
"8  c #157161",
"9  c #167161",
"0  c #157261",
"q  c #177262",
"w  c #177362",
"e  c #187361",
"r  c #187262",
"t  c #187363",
"y  c #197363",
"u  c #1C7361",
"i  c #1A7463",
"p  c #1C7461",
"a  c #1A7464",
"s  c #1B7464",
"d  c #1B7564",
"f  c #1E7766",
"g  c #237561",
"h  c #247561",
"j  c #257762",
"k  c #3D7860",
"l  c #3D7A60",
"z  c #3E7E61",
"x  c #497354",
"c  c #4D7257",
"v  c #4B7454",
"b  c #4B7554",
"n  c #4B7754",
"m  c #4B7854",
"M  c #4B7955",
"N  c #4B7A55",
"B  c #4B7B55",
"V  c #7A744C",
"C  c #A7713F",
"Z  c #DB6D33",
"A  c #D07237",
"S  c #F2722F",
"D  c #F37730",
"F  c #F37C31",
"G  c #926E43",
"H  c #388677",
"J  c #398777",
"K  c #398778",
"L  c #3A8878",
"P  c #3D8879",
"I  c #418059",
"U  c #428158",
"Y  c #588855",
"T  c #598856",
"R  c #52805B",
"E  c #72854F",
"W  c #72874F",
"Q  c #7A804E",
"!  c #678D53",
"~  c #628C54",
"^  c #698E53",
"/  c #788451",
"(  c #778852",
")  c #7B8A50",
"_  c #799351",
"`  c #7D9550",
"'  c #7F9650",
"]  c #438978",
"[  c #D28E3D",
"{  c #D39A3F",
"}  c #F38132",
"|  c #F38533",
" . c #F38A34",
".. c #F48F35",
"X. c #EF9C39",
"o. c #F49436",
"O. c #F49937",
"+. c #F49D38",
"@. c #E7AD3E",
"#. c #F0A13A",
"$. c #F4A139",
"%. c #F5A239",
"&. c #F5A73A",
"*. c #F5AC3B",
"=. c #F5B13C",
"-. c #F6B53D",
";. c #F6BA3E",
":. c #F2BE3F",
">. c #F6BF3F",
",. c #83974F",
"<. c #8D9B4E",
"1. c #969D4C",
"2. c #B0A047",
"3. c #B1A047",
"4. c #B9AA47",
"5. c #D29F40",
"6. c #C6AF46",
"7. c #D3A340",
"8. c #D2A341",
"9. c #CCB045",
"0. c #D5B344",
"q. c #D8B042",
"w. c #E8BA41",
"e. c #EBBB40",
"r. c #EDBC41",
"t. c #F1BD40",
"y. c #65A195",
"u. c #66A295",
"i. c #67A295",
"p. c #6CA294",
"a. c #6DA395",
"s. c #6AA498",
"d. c #6BA499",
"f. c #6CA599",
"g. c #75AB9E",
"h. c #76AB9F",
"j. c #78ACA0",
"k. c #78ACA1",
"l. c #7AADA3",
"z. c #7BAEA3",
"x. c #7BAFA3",
"c. c #7CAFA3",
"v. c #89B6AC",
"b. c #8DB9AF",
"n. c #8EBAAF",
"m. c #93BCB3",
"M. c #94BDB3",
"N. c #B2CFC7",
"B. c #B3D0C8",
"V. c #B4D1C8",
"C. c #B5D1C9",
"Z. c #C1D8D1",
"A. c #C3DAD2",
"S. c #C7DBD4",
"D. c #D4E3DD",
"F. c #D5E4DE",
"G. c #D6E4DE",
"H. c #D7E5DF",
"J. c #DDE8E3",
"K. c #DEE9E3",
"L. c #DFE9E4",
"P. c #E0EAE5",
"I. c #F3F6F1",
"U. c #F4F6F1",
"Y. c #F5F7F2",
"T. c #F6F7F3",
"R. c #FFFDF9",
"E. c None",
/* pixels */
"E.E.E.E.o o o o o o o o o o o o o o o o o o o o o o   o E.E.E.E.",
"E.E.E.o o o o o o o o o o o o o o o o o o o o o o o o o o E.E.E.",
"E.E.o o o o o o o o o o o o % ' ' % o o o o o o o o o o o o E.E.",
"E.o o o o o o o o o o o o o T >.>.T o o o o o o o o o o o o o E.",
"o o o o o 1.9.U o o o o o o ^ >.>.^ o o o o o o U 9.1.o o o o % ",
"o o o o > >.>.0.= o o o o o ^ >.>.^ o o o o o = 0.>.>.> o o o   ",
"o o o o o 4.>.>.<.o o o o o ^ >.>.^ o o o o o <.>.>.4.o o o o o ",
"o o o o o < e.>.:.U o o o o ^ >.>.^ o o o o 6 t.>.r.< o o o o o ",
"o o o o o o _ >.>.9.% o o o ! >.>.! o o o % 9.>.>._ o o o o o o ",
"o o o o o o % 6.>.>.T o o o < e.e.< o o o T >.>.6.% o o o o o o ",
"o o o o o o o 4 e.e.< o o o o : : o o o o < e.e.4 o o o o o o o ",
"o o o o o o : ~ ,.,.' ' ' ' ' ' ' ' ' ' ' ' ,.,.~ : o o o o o o ",
"o o o o o < q.;.;.;.;.;.;.;.;.;.;.;.;.;.;.;.;.;.;.q.< o o o o o ",
"o o o o o 3.-.-.-.-.-.-.-.-.-.-.-.-.-.-.-.-.-.-.-.-.3.o o o o o ",
"o o o o o @.=.=.=.=.=.=.=.=.=.=.=.=.=.=.=.=.=.=.=.=.@.o o o o o ",
"o o o o o 7.*.*.*.*.*.*.*.*.*.*.*.*.*.*.*.*.*.*.*.*.7.o o o o o ",
"o o o o o W &.&.&.&.&.&.&.&.&.&.&.&.&.&.5.) z j j z 6 o o o o o ",
"o o o o o % W { %.%.%.%.%.%.%.%.%.%.#.( p a.C.G.G.C.i.7 y o o o ",
"o o o o o o o o o o o o M +.+.+.+.X.R P P.R.I.m.M.I.R.P.L a o o ",
"o o o o o o o o o o o o M O.O.O.O./ ] T.A.S.S.o o S.S.A.T.L 7 o ",
"o o o o o o o o o o o o M o.o.o.[ p P.A.y a l.o o l.a y A.L.7 o ",
"o o o o o o o o o o o o M ......Q a.R.S.a o o o o o o a S.R.i.7 ",
"o o o o o o o o o o o o v  . . .l C.I.A.l.o 7 d.d.7 % h.A.I.C.f ",
"o o o o o o o o o o o o v | | | g G.b.o o o f.R.R.d.o o o b.G.i ",
"o o o o o o o o o o o o v } } } j G.b.o o o d.R.R.d.o o o b.D.a ",
"o o o o o o o o o o o o x F F F l C.I.A.l.o 7 d.d.7 o h.A.I.B.f ",
"o o o o o o o o o o o o , D D D V a.R.S.a o o o o o o a S.R.i.7 ",
"o o o o o o o o o o o o o C S S A u L.A.y a l.o o c.a y A.K.7 % ",
"E.o o o o o o o o o o o o - G Z Z c L T.A.S.S.o o S.S.A.T.H y E.",
"E.E.o o o o o o o o o o o o o o o o a K K.R.I.v.v.T.R.K.H a E.E.",
"E.E.E.o o o o o o o o o o o o o o o o y 7 i.B.G.G.N.i.7 y E.E.E.",
"E.E.E.E.% o o o o o o o o o o o o o o o o 7 f a a f 7 % E.E.E.E."
};
