/* XPM */
static const char *veyon_master[] = {
/* columns rows colors chars-per-pixel */
"32 32 88 1 ",
"  c #136F5F",
". c #12705E",
"X c #12705F",
"o c #13705F",
"O c #13715F",
"+ c #14705E",
"@ c #14715F",
"# c #16715F",
"$ c #17715F",
"% c #1B735E",
"& c #1C705D",
"* c #1D705D",
"= c #1F745D",
"- c #1E745E",
"; c #25775C",
": c #28705B",
"> c #29715B",
", c #307A5B",
"< c #317A5B",
"1 c #327B5B",
"2 c #337B5B",
"3 c #3A7E5A",
"4 c #3D7F59",
"5 c #497354",
"6 c #4B7454",
"7 c #4B7554",
"8 c #4B7754",
"9 c #4B7854",
"0 c #4B7955",
"q c #4B7A55",
"w c #4B7B55",
"e c #A5713F",
"r c #A7713F",
"t c #DB6D33",
"y c #F2722F",
"u c #F37730",
"i c #F37C31",
"p c #916F43",
"a c #926E43",
"s c #418059",
"d c #428158",
"f c #588855",
"g c #598856",
"h c #72854F",
"j c #72874F",
"k c #678D53",
"l c #628C54",
"z c #698E53",
"x c #718450",
"c c #708750",
"v c #799351",
"b c #7D9550",
"n c #7F9650",
"m c #D39A3F",
"M c #F38132",
"N c #F38533",
"B c #F38A34",
"V c #F48F35",
"C c #F49436",
"Z c #F49937",
"A c #F49D38",
"S c #E7AD3E",
"D c #F4A139",
"F c #F5A239",
"G c #F5A73A",
"H c #F5AC3B",
"J c #F5B13C",
"K c #F6B53D",
"L c #F6BA3E",
"P c #F2BE3F",
"I c #F6BF3F",
"U c #83974F",
"Y c #8D9B4E",
"T c #969D4C",
"R c #B0A047",
"E c #B1A047",
"W c #B9AA47",
"Q c #C6AF46",
"! c #D3A340",
"~ c #D2A341",
"^ c #CCB045",
"/ c #D5B344",
"( c #D8B042",
") c #E8BA41",
"_ c #EBBB40",
"` c #EDBC41",
"' c #F1BD40",
"] c None",
/* pixels */
"]]]]oooooooooooooooooooooo o]]]]",
"]]]oooooooooooooooooooooooooo]]]",
"]]oooooooooooo#nn#oooooooooooo]]",
"]ooooooooooooogIIgooooooooooooo]",
"oooooT^doooooozIIzooooood^Toooo#",
"oooo;II/%ooooozIIzooooo%/II;ooo ",
"oooooWIIYooooozIIzoooooYIIWooooo",
"ooooo,_IPdoooozIIzoooo4'I`,ooooo",
"oooooovII^#oookIIkooo#^IIvoooooo",
"oooooo#QIIgooo,__,ooogIIQ#oooooo",
"ooooooo3__,oooo--oooo,__3ooooooo",
"oooooo-lUUnnnnnnnnnnnnUUl-oooooo",
"ooooo,(LLLLLLLLLLLLLLLLLL(,ooooo",
"oooooEKKKKKKKKKKKKKKKKKKKKEooooo",
"oooooSJJJJJJJJJJJJJJJJJJJJSooooo",
"ooooo!HHHHHHHHHHHHHHHHHHHH!ooooo",
"ooooojGGGGGGGGGGGGGGGGGGGGxooooo",
"ooooo#jmFFFFFFFFFFFFFFFFmx#ooooo",
"oooooooooooo0AAAAAA0oooooooooooo",
"oooooooooooo0ZZZZZZ0oooooooooooo",
"oooooooooooo0CCCCCC0oooooooooooo",
"oooooooooooo0VVVVVV0oooooooooooo",
"oooooooooooo6BBBBBB6oooooooooooo",
"oooooooooooo6NNNNNN6oooooooooooo",
"oooooooooooo6MMMMMM6oooooooooooo",
"oooooooooooo5iiiiii5oooooooooooo",
"oooooooooooo:uuuuuu:ooooooooooo ",
"oooooooooooooryyyyroooooooooooo#",
"]oooooooooooo*atta*oooooooooooo]",
"]]oooooooooooooooooooooooooooo]]",
"]]]oooooooooooooooooooooooooo]]]",
"]]]]#oooooooooooooooooooooo#]]]]"
};
